Numix-GalliumOS/48/status/airplane-mode.svg

<?xml version="1.0" encoding="UTF-8" standalone="no"?>
<!-- Created with Inkscape (http://www.inkscape.org/) -->

<svg
   xmlns:dc="http://purl.org/dc/elements/1.1/"
   xmlns:cc="http://creativecommons.org/ns#"
   xmlns:rdf="http://www.w3.org/1999/02/22-rdf-syntax-ns#"
   xmlns:svg="http://www.w3.org/2000/svg"
   xmlns="http://www.w3.org/2000/svg"
   xmlns:sodipodi="http://sodipodi.sourceforge.net/DTD/sodipodi-0.dtd"
   xmlns:inkscape="http://www.inkscape.org/namespaces/inkscape"
   width="48px"
   height="48px"
   viewBox="0 0 48 48"
   id="SVGRoot"
   version="1.1"
   inkscape:version="0.91 r"
   sodipodi:docname="airplane-mode.svg">
  <sodipodi:namedview
     id="base"
     pagecolor="#ffffff"
     bordercolor="#666666"
     borderopacity="1.0"
     inkscape:pageopacity="0.0"
     inkscape:pageshadow="2"
     inkscape:zoom="8"
     inkscape:cx="41.36049"
     inkscape:cy="4.5036232"
     inkscape:document-units="px"
     inkscape:current-layer="layer1"
     showgrid="true"
     inkscape:window-width="1918"
     inkscape:window-height="971"
     inkscape:window-x="0"
     inkscape:window-y="34"
     inkscape:window-maximized="0"
     inkscape:grid-bbox="true">
    <inkscape:grid
       type="xygrid"
       id="grid29213" />
  </sodipodi:namedview>
  <defs
     id="defs28337">
    <clipPath
       id="clipPath-408241621">
      <g
         id="g3616"
         transform="translate(0,-1004.3622)">
        <path
           id="path3618"
           transform="matrix(15.333333,0,0,11.5,414.99999,878.8622)"
           d="m -24,13 c 0,1.105 -0.672,2 -1.5,2 -0.828,0 -1.5,-0.895 -1.5,-2 0,-1.105 0.672,-2 1.5,-2 0.828,0 1.5,0.895 1.5,2 z"
           inkscape:connector-curvature="0"
           style="fill:#1890d0" />
      </g>
    </clipPath>
    <clipPath
       id="clipPath-408241621-1">
      <g
         id="g3616-3"
         transform="translate(0,-1004.3622)">
        <path
           id="path3618-3"
           transform="matrix(15.333333,0,0,11.5,414.99999,878.8622)"
           d="m -24,13 c 0,1.105 -0.672,2 -1.5,2 -0.828,0 -1.5,-0.895 -1.5,-2 0,-1.105 0.672,-2 1.5,-2 0.828,0 1.5,0.895 1.5,2 z"
           inkscape:connector-curvature="0"
           style="fill:#1890d0" />
      </g>
    </clipPath>
  </defs>
  <metadata
     id="metadata28340">
    <rdf:RDF>
      <cc:Work
         rdf:about="">
        <dc:format>image/svg+xml</dc:format>
        <dc:type
           rdf:resource="http://purl.org/dc/dcmitype/StillImage" />
        <dc:title></dc:title>
      </cc:Work>
    </rdf:RDF>
  </metadata>
  <g
     id="layer1"
     inkscape:groupmode="layer"
     inkscape:label="Layer 1">
    <path
       style="fill:#71a6ce;fill-opacity:1;stroke:none;stroke-width:1;stroke-opacity:0.3492823"
       d="m 41.139438,6.8605631 c -1.147229,-1.1472282 -4.242641,0 -7.299007,3.0563666 L 29.348602,14.408759 10.039139,10.333979 C 8.6494773,10.071845 8.2496654,10.064029 7.5492646,10.752251 5.9055787,12.396 5.9046065,12.396184 8.6083551,13.963423 L 22.642586,21.114774 14.914535,28.842825 8.8101442,27.67175 C 8.0957789,27.521219 8.1080303,27.467966 7.6604953,27.915419 l -0.4428376,0.442837 c -0.674961,0.674961 0.3375826,1.474379 0.3375826,1.474379 l 6.2862457,4.32588 4.32588,6.286246 c 0,0 0.799418,1.012543 1.474379,0.337582 l 0.442837,-0.442837 c 0.447453,-0.447535 0.3942,-0.435283 0.243669,-1.149649 l -1.171075,-6.104391 7.728051,-7.728051 7.151351,14.034231 c 1.567235,2.703745 1.567423,2.702776 3.211172,1.05909 0.68823,-0.700393 0.680405,-1.100213 0.418272,-2.489874 l -4.074779,-19.309463 4.491828,-4.491828 c 3.056367,-3.056367 4.203595,-6.1517793 3.056367,-7.2990079 z"
       id="path27922"
       inkscape:connector-curvature="0"
       sodipodi:nodetypes="ssccccccccscccsccccccccss" />
  </g>
</svg>

<svg xmlns="http://www.w3.org/2000/svg" viewBox="0 0 48 48">
 <g>
  <path d="m 41.14 6.861 c -1.147 -1.147 -4.243 0 -7.299 3.056 l -4.492 4.492 -19.309 -4.075 c -1.39 -0.262 -1.789 -0.27 -2.49 0.418 -1.644 1.644 -1.645 1.644 1.059 3.211 l 14.03 7.151 -7.728 7.728 -6.104 -1.171 c -0.714 -0.151 -0.702 -0.204 -1.15 0.244 l -0.443 0.443 c -0.675 0.675 0.338 1.474 0.338 1.474 l 6.286 4.326 4.326 6.286 c 0 0 0.799 1.013 1.474 0.338 l 0.443 -0.443 c 0.447 -0.448 0.394 -0.435 0.244 -1.15 l -1.171 -6.104 7.728 -7.728 7.151 14.03 c 1.567 2.704 1.567 2.703 3.211 1.059 0.688 -0.7 0.68 -1.1 0.418 -2.49 l -4.075 -19.309 4.492 -4.492 c 3.056 -3.056 4.204 -6.152 3.056 -7.299 z" style="fill:#71a6ce;fill-opacity:1;stroke:none"/>
 </g>
</svg>
